assets/images/icons/calendar-date.svg

<svg width="20" height="21" viewBox="0 0 20 21" fill="none" xmlns="http://www.w3.org/2000/svg">
<g id="fi_10156100">
<path id="Vector" d="M6.25065 2.58333C6.25065 2.1231 5.87756 1.75 5.41732 1.75C4.95708 1.75 4.58398 2.1231 4.58398 2.58333V3.41667C4.58398 3.8769 4.95708 4.25 5.41732 4.25C5.87756 4.25 6.25065 3.8769 6.25065 3.41667V2.58333Z" fill="#7FB51F"/>
<path id="Vector_2" d="M15.4167 2.58333C15.4167 2.1231 15.0436 1.75 14.5833 1.75C14.1231 1.75 13.75 2.1231 13.75 2.58333V3.41667C13.75 3.8769 14.1231 4.25 14.5833 4.25C15.0436 4.25 15.4167 3.8769 15.4167 3.41667V2.58333Z" fill="#7FB51F"/>
<path id="Vector_3" d="M1.66602 8V17.5833C1.66602 18.5037 2.41227 19.25 3.33268 19.25H16.666C17.5864 19.25 18.3327 18.5037 18.3327 17.5833V8H1.66602ZM6.66602 16.3333C6.66602 16.7937 6.2931 17.1667 5.83268 17.1667H4.99935C4.53893 17.1667 4.16602 16.7937 4.16602 16.3333V15.5C4.16602 15.0396 4.53893 14.6667 4.99935 14.6667H5.83268C6.2931 14.6667 6.66602 15.0396 6.66602 15.5V16.3333ZM6.66602 11.75C6.66602 12.2104 6.2931 12.5833 5.83268 12.5833H4.99935C4.53893 12.5833 4.16602 12.2104 4.16602 11.75V10.9167C4.16602 10.4562 4.53893 10.0833 4.99935 10.0833H5.83268C6.2931 10.0833 6.66602 10.4562 6.66602 10.9167V11.75ZM11.2493 16.3333C11.2493 16.7937 10.8764 17.1667 10.416 17.1667H9.58268C9.12227 17.1667 8.74935 16.7937 8.74935 16.3333V15.5C8.74935 15.0396 9.12227 14.6667 9.58268 14.6667H10.416C10.8764 14.6667 11.2493 15.0396 11.2493 15.5V16.3333ZM11.2493 11.75C11.2493 12.2104 10.8764 12.5833 10.416 12.5833H9.58268C9.12227 12.5833 8.74935 12.2104 8.74935 11.75V10.9167C8.74935 10.4562 9.12227 10.0833 9.58268 10.0833H10.416C10.8764 10.0833 11.2493 10.4562 11.2493 10.9167V11.75ZM15.8327 16.3333C15.8327 16.7937 15.4598 17.1667 14.9993 17.1667H14.166C13.7056 17.1667 13.3327 16.7937 13.3327 16.3333V15.5C13.3327 15.0396 13.7056 14.6667 14.166 14.6667H14.9993C15.4598 14.6667 15.8327 15.0396 15.8327 15.5V16.3333ZM15.8327 11.75C15.8327 12.2104 15.4598 12.5833 14.9993 12.5833H14.166C13.7056 12.5833 13.3327 12.2104 13.3327 11.75V10.9167C13.3327 10.4562 13.7056 10.0833 14.166 10.0833H14.9993C15.4598 10.0833 15.8327 10.4562 15.8327 10.9167V11.75Z" fill="#7FB51F"/>
<path id="Vector_4" d="M18.3327 7.16667V4.66667C18.3327 3.74625 17.5864 3 16.666 3H16.2493V3.41667C16.2493 4.33583 15.5019 5.08333 14.5827 5.08333C13.6635 5.08333 12.916 4.33583 12.916 3.41667V3H7.08268V3.41667C7.08268 4.33583 6.33518 5.08333 5.41602 5.08333C4.49685 5.08333 3.74935 4.33583 3.74935 3.41667V3H3.33268C2.41227 3 1.66602 3.74625 1.66602 4.66667V7.16667H18.3327Z" fill="#7FB51F"/>
</g>
</svg>

<svg xmlns="http://www.w3.org/2000/svg" width="20" height="21" fill="none"><g fill="#7FB51F"><path d="M6.25 2.583a.833.833 0 0 0-1.666 0v.834a.833.833 0 0 0 1.667 0zm9.167 0a.833.833 0 0 0-1.667 0v.834a.833.833 0 0 0 1.667 0zM1.666 8v9.583c0 .92.746 1.667 1.667 1.667h13.333c.92 0 1.667-.746 1.667-1.667V8zm5 8.333c0 .46-.373.834-.833.834h-.834a.833.833 0 0 1-.833-.834V15.5c0-.46.373-.833.833-.833h.834c.46 0 .833.373.833.833zm0-4.583c0 .46-.373.833-.833.833h-.834a.833.833 0 0 1-.833-.833v-.833c0-.46.373-.834.833-.834h.834c.46 0 .833.373.833.834zm4.583 4.583c0 .46-.373.834-.833.834h-.833a.833.833 0 0 1-.834-.834V15.5c0-.46.373-.833.834-.833h.833c.46 0 .833.373.833.833zm0-4.583c0 .46-.373.833-.833.833h-.833a.833.833 0 0 1-.834-.833v-.833c0-.46.373-.834.834-.834h.833c.46 0 .833.373.833.834zm4.584 4.583c0 .46-.373.834-.834.834h-.833a.833.833 0 0 1-.833-.834V15.5c0-.46.373-.833.833-.833h.833c.46 0 .834.373.834.833zm0-4.583c0 .46-.373.833-.834.833h-.833a.833.833 0 0 1-.833-.833v-.833c0-.46.373-.834.833-.834h.833c.46 0 .834.373.834.834z"/><path d="M18.333 7.167v-2.5c0-.92-.747-1.667-1.667-1.667h-.417v.417a1.667 1.667 0 0 1-3.333 0V3H7.083v.417a1.668 1.668 0 0 1-3.334 0V3h-.416c-.92 0-1.667.746-1.667 1.667v2.5z"/></g></svg>
